img/climate-icon/circulate.svg

<svg width="24" height="24" viewBox="0 0 24 24" fill="none" xmlns="http://www.w3.org/2000/svg">
<g clip-path="url(#clip0_7_7407)">
<path d="M22.2303 16.4599C21.9303 15.5699 21.2603 14.8499 20.4003 14.4899L15.3203 12.3599C15.1703 11.8399 14.9003 11.3799 14.5403 10.9999L15.2203 5.5699C15.3403 4.6399 15.0503 3.7099 14.4303 3.0099C13.8103 2.2999 12.9203 1.8999 11.9803 1.8999C11.0403 1.8999 10.1503 2.2999 9.53033 3.0099C8.92033 3.7099 8.63033 4.6499 8.74033 5.5699L9.44033 11.0099C9.25033 11.1999 9.09033 11.4199 8.96033 11.6499C8.82033 11.8899 8.71033 12.1399 8.64033 12.3899L3.59033 14.5099C2.73033 14.8699 2.06033 15.5899 1.77033 16.4799C1.47033 17.3699 1.56033 18.3399 2.03033 19.1499C2.61033 20.1599 3.70033 20.7799 4.86033 20.7799C5.58033 20.7799 6.26033 20.5499 6.83033 20.1199L11.2003 16.7999C11.4603 16.8699 11.7303 16.8999 11.9903 16.8999C12.2703 16.8999 12.5403 16.8699 12.8003 16.7999L17.1603 20.0999C17.7403 20.5299 18.4203 20.7599 19.1303 20.7599C20.3003 20.7599 21.3803 20.1399 21.9603 19.1299C22.4303 18.3199 22.5303 17.3399 22.2303 16.4599ZM11.9803 3.3999C13.0403 3.3999 13.8603 4.3299 13.7303 5.3899L13.1403 10.0999C12.7703 9.9699 12.3803 9.8999 11.9903 9.8999C11.6003 9.8999 11.2003 9.9699 10.8303 10.1099L10.2303 5.3899C10.1003 4.3299 10.9203 3.3999 11.9803 3.3999ZM5.92033 18.9199C5.60033 19.1699 5.23033 19.2799 4.86033 19.2799C4.25033 19.2799 3.66033 18.9699 3.33033 18.3999C2.80033 17.4799 3.20033 16.2999 4.18033 15.8899L8.56033 14.0399C8.70033 14.8099 9.09033 15.5299 9.71033 16.0499L5.92033 18.9199ZM12.5203 15.3199C12.3503 15.3799 12.1703 15.3999 11.9903 15.3999C11.8103 15.3999 11.6403 15.3799 11.4603 15.3199C11.3003 15.2799 11.1403 15.2199 10.9903 15.1299C10.6703 14.9399 10.4203 14.6799 10.2503 14.3799C10.0003 13.9399 9.92033 13.4099 10.0603 12.8999C10.1003 12.7299 10.1703 12.5599 10.2603 12.3999C10.3503 12.2399 10.4603 12.0999 10.5903 11.9699C10.9703 11.5999 11.4703 11.3999 11.9903 11.3999C12.3303 11.3999 12.6803 11.4899 12.9903 11.6699C13.1403 11.7599 13.2703 11.8599 13.3903 11.9699C13.6503 12.2299 13.8403 12.5499 13.9203 12.8999C14.0603 13.3899 14.0003 13.9299 13.7203 14.3999C13.4503 14.8699 13.0103 15.1899 12.5203 15.3199ZM20.6603 18.3799C20.3303 18.9499 19.7403 19.2599 19.1303 19.2599C18.7603 19.2599 18.3903 19.1499 18.0703 18.8999L14.2903 16.0299C14.5803 15.7799 14.8303 15.4899 15.0203 15.1499C15.2203 14.7899 15.3603 14.4099 15.4303 14.0199L19.8203 15.8699C20.8003 16.2799 21.1903 17.4599 20.6603 18.3799Z" fill="#F1F1F1"/>
<path d="M12.0102 22.0899C11.4502 22.0899 10.8602 22.0299 10.2602 21.9199C9.85021 21.8399 9.59021 21.4499 9.67021 21.0399C9.75021 20.6299 10.1402 20.3599 10.5502 20.4499C11.5602 20.6399 12.4802 20.6399 13.4902 20.4499C13.9002 20.3699 14.2902 20.6399 14.3702 21.0399C14.4502 21.4499 14.1802 21.8399 13.7802 21.9199C13.1802 22.0399 12.5902 22.0899 12.0302 22.0899H12.0102Z" fill="#F1F1F1"/>
<path d="M4.3802 11.68C4.3102 11.68 4.2302 11.67 4.1602 11.65C3.7602 11.53 3.5402 11.11 3.6702 10.71C4.0402 9.51998 4.6502 8.44998 5.4902 7.51998C5.7702 7.20998 6.2402 7.18998 6.5502 7.46998C6.8602 7.74998 6.8802 8.21998 6.6002 8.52998C5.9102 9.28998 5.4102 10.18 5.1002 11.16C5.0002 11.48 4.7002 11.69 4.3802 11.69V11.68Z" fill="#F1F1F1"/>
<path d="M19.6301 11.6599C19.3101 11.6599 19.0201 11.4599 18.9201 11.1399C18.6101 10.1599 18.0801 9.23986 17.4001 8.48986C17.1201 8.17986 17.1501 7.70986 17.4501 7.42986C17.7601 7.14986 18.2301 7.17986 18.5101 7.47986C19.3401 8.39986 19.9701 9.49986 20.3501 10.6899C20.4701 11.0799 20.2601 11.5099 19.8601 11.6299C19.7801 11.6499 19.7101 11.6699 19.6301 11.6699V11.6599Z" fill="#F1F1F1"/>
</g>
<defs>
<clipPath id="clip0_7_7407">
<rect width="20.8" height="20.19" fill="white" transform="translate(1.6001 1.8999)"/>
</clipPath>
</defs>
</svg>

<svg width="24" height="24" fill="none" xmlns="http://www.w3.org/2000/svg"><g clip-path="url(#a)" fill="#F1F1F1"><path d="M22.23 16.46a3.27 3.27 0 0 0-1.83-1.97l-5.08-2.13a3.3 3.3 0 0 0-.78-1.36l.68-5.43c.12-.93-.17-1.86-.79-2.56a3.243 3.243 0 0 0-2.45-1.11c-.94 0-1.83.4-2.45 1.11-.61.7-.9 1.64-.79 2.56l.7 5.44c-.19.19-.35.41-.48.64-.14.24-.25.49-.32.74l-5.05 2.12c-.86.36-1.53 1.08-1.82 1.97-.3.89-.21 1.86.26 2.67a3.27 3.27 0 0 0 4.8.97l4.37-3.32c.26.07.53.1.79.1.28 0 .55-.03.81-.1l4.36 3.3c.58.43 1.26.66 1.97.66 1.17 0 2.25-.62 2.83-1.63.47-.81.57-1.79.27-2.67zM11.98 3.4c1.06 0 1.88.93 1.75 1.99l-.59 4.71c-.37-.13-.76-.2-1.15-.2-.39 0-.79.07-1.16.21l-.6-4.72c-.13-1.06.69-1.99 1.75-1.99zM5.92 18.92a1.7 1.7 0 0 1-1.06.36c-.61 0-1.2-.31-1.53-.88-.53-.92-.13-2.1.85-2.51l4.38-1.85c.14.77.53 1.49 1.15 2.01l-3.79 2.87zm6.6-3.6c-.17.06-.35.08-.53.08-.18 0-.35-.02-.53-.08-.16-.04-.32-.1-.47-.19-.32-.19-.57-.45-.74-.75a1.95 1.95 0 0 1-.19-1.48 1.968 1.968 0 0 1 .53-.93 2 2 0 0 1 2.8 0c.26.26.45.58.53.93a1.9 1.9 0 0 1-.2 1.5c-.27.47-.71.79-1.2.92zm8.14 3.06c-.33.57-.92.88-1.53.88a1.7 1.7 0 0 1-1.06-.36l-3.78-2.87c.29-.25.54-.54.73-.88.2-.36.34-.74.41-1.13l4.39 1.85c.98.41 1.37 1.59.84 2.51z"/><path d="M12.01 22.09c-.56 0-1.15-.06-1.75-.17a.744.744 0 0 1-.59-.88c.08-.41.47-.68.88-.59 1.01.19 1.93.19 2.94 0 .41-.08.8.19.88.59.08.41-.19.8-.59.88-.6.12-1.19.17-1.75.17h-.02zM4.38 11.68a.737.737 0 0 1-.71-.97c.37-1.19.98-2.26 1.82-3.19.28-.31.75-.33 1.06-.05.31.28.33.75.05 1.06-.69.76-1.19 1.65-1.5 2.63-.1.32-.4.53-.72.53v-.01zM19.63 11.66c-.32 0-.61-.2-.71-.52-.31-.98-.84-1.9-1.52-2.65a.755.755 0 0 1 .05-1.06c.31-.28.78-.25 1.06.05.83.92 1.46 2.02 1.84 3.21a.75.75 0 0 1-.49.94c-.08.02-.15.04-.23.04v-.01z"/></g><defs><clipPath id="a"><path fill="#fff" transform="translate(1.6 1.9)" d="M0 0h20.8v20.19H0z"/></clipPath></defs></svg>
